assets/Palms up together/Medium-Dark/Flat/palms_up_together_flat_medium-dark.svg

<svg width="32" height="32" viewBox="0 0 32 32" fill="none" xmlns="http://www.w3.org/2000/svg">
<path d="M2.78123 14.1562C2.57335 12.5823 2.78123 10.9219 4.28124 10.8438C5.40508 10.7852 5.72346 11.2975 5.96799 11.6909L5.99998 11.7422C5.99998 10.2305 6.16507 9.03125 7.91407 9.03125C9.24219 9.03125 9.63034 10.3581 9.63034 11.4318C9.63034 11.4318 9.98123 10.625 11.1562 10.625C12.7553 10.625 12.9045 11.9972 12.9045 13.3398C12.9045 13.3398 13.3521 12.7745 14.2707 12.7745C15.5457 12.7745 15.9382 13.9105 15.9903 14.4626C15.9903 14.3067 16.0076 14.5417 16.0197 16H16.0427C16.0548 14.5417 16.0722 14.3067 16.0722 14.4626C16.1243 13.9105 16.5167 12.7745 17.7917 12.7745C18.7104 12.7745 19.1579 13.3398 19.1579 13.3398C19.1579 11.9972 19.3071 10.625 20.9062 10.625C22.0812 10.625 22.4321 11.4318 22.4321 11.4318C22.4321 10.3581 22.8202 9.03125 24.1484 9.03125C25.8974 9.03125 26.0625 10.2305 26.0625 11.7422L26.0944 11.6909C26.339 11.2975 26.6574 10.7852 27.7812 10.8438C29.2812 10.9219 29.4891 12.5823 29.2812 14.1562C29.0625 15.8125 29.0312 16.5312 29.0312 16.875C30.8281 16.7969 31.5031 17.8031 30.8281 20.4531C30.7762 20.6568 30.7231 20.8717 30.6677 21.0957C29.8226 24.5161 28.4521 30.0625 22.9375 30.0625C17.5754 30.0625 16.1043 26.023 16.0339 20H16.0285C15.9581 26.023 14.4871 30.0625 9.12498 30.0625C3.61029 30.0625 2.24003 24.5168 1.39489 21.0965C1.33947 20.8722 1.2863 20.657 1.23438 20.4531C0.559378 17.8031 1.23438 16.7969 3.03124 16.875C3.03124 16.5312 2.99998 15.8125 2.78123 14.1562Z" fill="#966661"/>
<path d="M23.5974 9.75952C23.6929 9.45376 23.8419 9.22651 24.1035 9.03177C22.9129 9.05903 22.4973 10.1728 22.4394 11.1781C22.438 11.2782 22.4375 11.3803 22.4375 11.4844V16.5625C22.4375 16.8387 22.6614 17.0625 22.9375 17.0625C23.2136 17.0625 23.4375 16.8387 23.4375 16.5625V11.4844C23.4375 10.6919 23.4733 10.1567 23.5974 9.75952Z" fill="#764C49"/>
<path d="M5.99997 11.7376C6.00009 11.1829 6.02265 10.6705 6.13783 10.2441L6.18244 10.2929C6.43079 10.5635 6.97809 11.1599 7.14753 12.0555C7.19768 12.3206 7.27392 13.1668 7.34765 14.0988C7.42287 15.0497 7.49888 16.1384 7.54597 16.9232C7.56251 17.1988 7.35246 17.4357 7.07681 17.4522C6.80117 17.4688 6.5643 17.2587 6.54777 16.9831C6.5011 16.2053 6.42555 15.123 6.35077 14.1777C6.2745 13.2136 6.20231 12.4388 6.16496 12.2414C6.12919 12.0523 6.071 11.8859 5.99997 11.7376Z" fill="#764C49"/>
<path d="M2.91724 16.8715C2.95472 16.8721 2.99272 16.8733 3.03123 16.875C3.03123 16.6858 3.02176 16.3829 2.97674 15.8725C3.29581 15.9013 3.60775 15.9873 3.88685 16.1087C4.31078 16.2933 4.71056 16.5824 4.95509 16.9492C5.33514 17.5193 5.62717 18.4716 5.81916 19.2155C5.91847 19.6003 5.99663 19.9529 6.04995 20.2091C6.07665 20.3374 6.09722 20.442 6.11118 20.5149C6.11816 20.5513 6.1235 20.5799 6.12713 20.5996L6.13129 20.6223L6.1324 20.6284C6.1324 20.6284 6.13259 20.6295 6.13271 20.6302C6.18118 20.902 6.00023 21.1625 5.72838 21.211C5.45654 21.2594 5.19689 21.0784 5.14839 20.8066L5.14818 20.8054L5.14734 20.8007L5.14374 20.781C5.14049 20.7635 5.13557 20.7371 5.12903 20.703C5.11595 20.6347 5.09643 20.5354 5.07093 20.4129C5.01987 20.1676 4.94523 19.831 4.85088 19.4654C4.65554 18.7084 4.3968 17.9146 4.12303 17.5039C4.0142 17.3406 3.79093 17.1576 3.48777 17.0257C3.30211 16.9449 3.10611 16.8919 2.91724 16.8715Z" fill="#764C49"/>
<path d="M11.1562 10.625C10.0931 10.625 9.70463 11.2855 9.6403 11.4113C9.5968 11.5794 9.56905 11.7283 9.55413 11.8402C9.51115 12.1625 9.50013 12.9613 9.5 13.8144C9.49987 14.6873 9.51175 15.6707 9.52218 16.3978C9.52614 16.6739 9.75318 16.8945 10.0293 16.8906C10.3054 16.8866 10.526 16.6596 10.5221 16.3835C10.5117 15.6574 10.4999 14.6799 10.5 13.8145C10.5001 12.9292 10.5134 12.2124 10.5454 11.9723C10.5655 11.8216 10.6271 11.5344 10.7458 11.248C10.8632 10.9646 11.0109 10.744 11.1721 10.625L11.1562 10.625Z" fill="#764C49"/>
<path d="M12.9045 13.3272L12.9045 13.3398C12.9045 13.3398 13.3521 12.7745 14.2707 12.7745C14.3041 12.7745 14.3369 12.7753 14.369 12.7768C14.3445 12.806 14.313 12.8455 14.2755 12.8967C14.1805 13.0267 14.0658 13.2071 13.9554 13.4288C13.7339 13.8739 13.5391 14.4667 13.5391 15.1406V17.3516C13.5391 17.6277 13.3152 17.8516 13.0391 17.8516C12.7629 17.8516 12.5391 17.6277 12.5391 17.3516V15.1406C12.5391 14.4452 12.7001 13.8268 12.9045 13.3272Z" fill="#764C49"/>
<path d="M18.1655 26.4519C18.979 28.2278 20.3115 29.6259 22.4564 30.0512C19.6762 29.9183 18.018 28.6157 17.0846 26.4715C16.7417 25.6321 16.5027 24.7432 16.3426 23.86C16.2086 23.0814 16.1229 22.2428 16.0761 21.352C16.0668 21.1038 16.0625 20.8609 16.0625 20.625V14.8984C16.0625 14.6343 16.0886 14.3673 16.1397 14.1064C16.3 13.5285 16.753 12.7745 17.7917 12.7745C17.9287 12.7745 18.0553 12.7871 18.1714 12.8085C17.8902 12.8806 17.6165 13.1108 17.4022 13.5013C17.1875 13.8926 17.0625 14.3965 17.0625 14.8984V20.625C17.0625 22.4465 17.3319 24.6322 18.1655 26.4519Z" fill="#764C49"/>
<path d="M20.9153 10.625L20.9062 10.625C19.3071 10.625 19.1579 11.9972 19.1579 13.3398L19.1562 13.3378V17.3438C19.1562 17.6199 19.3801 17.8438 19.6562 17.8438C19.9324 17.8438 20.1562 17.6199 20.1562 17.3438V12.6719C20.1562 12.0841 20.3509 11.5293 20.5839 11.1087C20.699 10.9007 20.8179 10.736 20.9153 10.625Z" fill="#764C49"/>
<path d="M26.0596 11.4325C25.8623 11.9365 25.7551 12.5325 25.6898 13.2181C25.614 14.0119 25.5689 14.6581 25.5281 15.2572L25.5208 15.3641C25.4828 15.9228 25.4475 16.4422 25.3929 17.015C25.3667 17.2899 25.5683 17.534 25.8432 17.5602C26.118 17.5864 26.3622 17.3848 26.3884 17.11C26.4443 16.5231 26.4805 15.9911 26.5183 15.4348L26.5258 15.3252C26.5665 14.7278 26.6109 14.0928 26.6852 13.3131C26.7584 12.5459 26.8792 12.0062 27.0708 11.6141C27.2384 11.2711 27.4665 11.028 27.8062 10.8452L27.7812 10.8437C26.6574 10.7852 26.339 11.2974 26.0944 11.6909L26.0625 11.7422C26.0625 11.6373 26.0617 11.534 26.0596 11.4325Z" fill="#764C49"/>
<path d="M27.4575 18.2975C27.6631 17.5926 28.2871 17.0464 29.0312 16.8697L29.0312 16.875C30.4252 16.8144 31.144 17.4064 31.0811 18.9123C31.0602 18.889 31.0412 18.8634 31.0245 18.8356C30.5022 17.9662 29.8814 17.767 29.4201 17.8156C28.9149 17.8689 28.5235 18.2142 28.4175 18.5775C28.2486 19.1566 28.1113 19.7883 28.0158 20.2797C27.9683 20.5244 27.9315 20.7322 27.9066 20.8785C27.8942 20.9516 27.8848 21.0092 27.8785 21.0483L27.8715 21.0925L27.8698 21.1035L27.8694 21.106C27.8277 21.379 27.5726 21.5672 27.2996 21.5255C27.0267 21.4839 26.8391 21.2289 26.8807 20.9559L26.8815 20.9509L26.8835 20.9381L26.8911 20.8898C26.8979 20.8479 26.9078 20.7873 26.9207 20.711C26.9467 20.5584 26.9849 20.3427 27.0342 20.089C27.1324 19.5835 27.2764 18.9183 27.4575 18.2975Z" fill="#764C49"/>
</svg>

<svg xmlns="http://www.w3.org/2000/svg" width="32" height="32" fill="none"><path fill="#966661" d="M2.781 14.156c-.208-1.574 0-3.234 1.5-3.312 1.124-.059 1.442.454 1.687.847l.032.051c0-1.512.165-2.71 1.914-2.71 1.328 0 1.716 1.326 1.716 2.4 0 0 .351-.807 1.526-.807 1.6 0 1.748 1.372 1.748 2.715 0 0 .448-.566 1.367-.566 1.275 0 1.667 1.137 1.72 1.689 0-.156.017.079.029 1.537h.023c.012-1.458.03-1.693.03-1.537.051-.552.444-1.688 1.719-1.688.918 0 1.366.565 1.366.565 0-1.343.15-2.715 1.748-2.715 1.175 0 1.526.807 1.526.807 0-1.074.388-2.4 1.716-2.4 1.75 0 1.915 1.198 1.915 2.71l.031-.051c.245-.394.563-.906 1.687-.847 1.5.078 1.708 1.738 1.5 3.312-.218 1.656-.25 2.375-.25 2.719 1.797-.078 2.472.928 1.797 3.578-.052.204-.105.419-.16.643-.845 3.42-2.216 8.966-7.73 8.966-5.363 0-6.834-4.039-6.904-10.062h-.005c-.07 6.023-1.542 10.063-6.904 10.063-5.515 0-6.885-5.546-7.73-8.966l-.16-.644c-.676-2.65 0-3.656 1.796-3.578 0-.344-.031-1.063-.25-2.719Z"/><path fill="#764C49" d="M23.597 9.76c.096-.306.245-.533.506-.728-1.19.027-1.606 1.14-1.664 2.146l-.002.306v5.079a.5.5 0 1 0 1 0v-5.079c0-.792.036-1.327.16-1.724ZM6 11.738c0-.555.023-1.067.138-1.494l.044.049c.249.27.796.867.966 1.763.05.265.126 1.11.2 2.043.075.95.15 2.04.198 2.824a.5.5 0 0 1-.998.06c-.047-.778-.122-1.86-.197-2.805-.077-.964-.149-1.74-.186-1.937A2.033 2.033 0 0 0 6 11.738ZM2.917 16.872l.114.003c0-.19-.01-.492-.054-1.002.319.028.63.114.91.236.424.184.824.473 1.068.84.38.57.672 1.523.864 2.266a21.873 21.873 0 0 1 .308 1.385l.004.022.001.006v.002a.5.5 0 0 1-.984.177V20.8l-.004-.02a13.064 13.064 0 0 0-.073-.368 20.893 20.893 0 0 0-.22-.948c-.195-.757-.454-1.55-.728-1.961-.109-.163-.332-.346-.635-.478a1.98 1.98 0 0 0-.57-.154ZM11.156 10.625c-1.063 0-1.451.66-1.516.786a3.726 3.726 0 0 0-.086.43c-.043.322-.054 1.12-.054 1.973 0 .873.012 1.857.022 2.584a.5.5 0 0 0 1-.014c-.01-.727-.022-1.704-.022-2.57 0-.885.013-1.602.045-1.842.02-.15.082-.438.2-.724.118-.283.266-.504.427-.623h-.016ZM12.905 13.327v.013s.447-.566 1.366-.566c.033 0 .066.001.098.003-.024.029-.056.069-.094.12-.095.13-.21.31-.32.532a3.873 3.873 0 0 0-.416 1.712v2.21a.5.5 0 0 1-1 0v-2.21c0-.696.161-1.314.366-1.814ZM18.166 26.452c.813 1.776 2.145 3.174 4.29 3.6-2.78-.134-4.438-1.436-5.371-3.58a13.117 13.117 0 0 1-.742-2.612 21.51 21.51 0 0 1-.267-2.508c-.01-.248-.014-.491-.014-.727v-5.727c0-.264.027-.53.078-.792.16-.578.613-1.332 1.652-1.332.137 0 .263.013.38.035-.282.072-.556.302-.77.692-.215.392-.34.896-.34 1.397v5.727c0 1.822.27 4.007 1.104 5.827Z"/><path fill="#764C49" d="M20.915 10.625h-.009c-1.599 0-1.748 1.372-1.748 2.715l-.002-.002v4.006a.5.5 0 0 0 1 0v-4.672c0-.588.195-1.143.428-1.563.115-.208.234-.373.331-.484ZM26.06 11.432c-.198.505-.305 1.1-.37 1.786-.076.794-.121 1.44-.162 2.04l-.007.106c-.038.559-.073 1.078-.128 1.651a.5.5 0 0 0 .995.095c.056-.587.092-1.119.13-1.675l.008-.11c.04-.597.085-1.232.16-2.012.072-.767.193-1.307.385-1.699a1.65 1.65 0 0 1 .735-.769l-.025-.001c-1.124-.059-1.442.453-1.687.847l-.032.051c0-.105 0-.208-.002-.31ZM27.457 18.297c.206-.704.83-1.25 1.574-1.427v.005c1.394-.06 2.113.531 2.05 2.037a.502.502 0 0 1-.056-.076c-.523-.87-1.144-1.069-1.605-1.02-.505.053-.897.398-1.003.762-.168.579-.306 1.21-.401 1.702a26.55 26.55 0 0 0-.137.768l-.008.045-.001.01v.003a.5.5 0 0 1-.99-.15l.002-.005.002-.013.007-.048a26.82 26.82 0 0 1 .143-.801c.098-.505.242-1.17.424-1.791Z"/></svg>
